components/Icon/icons/mysql.svg

<svg width="50" height="50" viewBox="0 0 50 50" fill="none" xmlns="http://www.w3.org/2000/svg">
<g clip-path="url(#clip0)">
<path d="M34.1797 11.825C33.936 11.825 33.7735 11.8578 33.6094 11.8985V11.9235H33.6344C33.7485 12.1344 33.936 12.2985 34.0813 12.4938C34.1953 12.7141 34.2922 12.9407 34.3985 13.161L34.4313 13.1282C34.6266 12.9891 34.725 12.7703 34.725 12.436C34.6438 12.3375 34.6266 12.2328 34.5547 12.1422C34.4735 12.0032 34.2938 11.9313 34.1797 11.825ZM12.0203 39.3141H10.0922C10.0338 36.2451 9.84668 33.1799 9.53127 30.1266H9.51565L6.57815 39.3141H5.10471L2.19065 30.1266H2.16565C1.93919 33.1844 1.80371 36.2482 1.7594 39.3141H0.00158691C0.0967684 35.4612 0.382011 31.6154 0.856274 27.7907H3.24846L6.03127 36.2547H6.0469L8.85471 27.7907H11.1328C11.6375 31.9907 11.9391 35.8313 12.0281 39.3141H12.0203ZM20.386 30.811C19.6047 35.075 18.5625 38.1766 17.286 40.1047C16.2766 41.5938 15.1781 42.3422 13.9813 42.3422C13.6641 42.3422 13.2735 42.2438 12.8016 42.0485V41.0235C13.0375 41.0563 13.3063 41.0797 13.6078 41.0797C14.1688 41.0797 14.6172 40.9172 14.9594 40.6157C15.3656 40.2407 15.5703 39.8188 15.5703 39.3547C15.5703 39.0297 15.4156 38.3782 15.0906 37.386L12.9828 30.811H14.8797L16.3938 35.7266C16.736 36.85 16.8828 37.6235 16.8172 38.0703C17.6547 35.8563 18.2328 33.4313 18.5594 30.811H20.386ZM46.0688 39.3141H40.5844V27.7907H42.4313V37.8985H46.0688V39.3141ZM39.1516 39.5922L37.036 38.55C37.2235 38.3953 37.4016 38.225 37.5656 38.0297C38.4688 36.9797 38.9172 35.4094 38.9172 33.3422C38.9172 29.525 37.4203 27.6219 34.425 27.6219C32.9594 27.6219 31.8125 28.1016 30.9906 29.0703C30.0953 30.1282 29.6391 31.6907 29.6391 33.75C29.6391 35.7766 30.0375 37.2578 30.836 38.2094C31.5688 39.0563 32.6672 39.4875 34.1407 39.4875C34.686 39.4875 35.1906 39.4219 35.6469 39.2844L38.4063 40.8953L39.1625 39.5938L39.1516 39.5922ZM32.2922 37.0032C31.8203 36.2547 31.5922 35.05 31.5922 33.3891C31.5922 30.4844 32.4719 29.036 34.2375 29.036C35.1578 29.036 35.8407 29.386 36.2719 30.0782C36.736 30.8344 36.9719 32.0235 36.9719 33.6672C36.9719 36.5891 36.0844 38.0625 34.3266 38.0625C33.3985 38.0625 32.7235 37.7125 32.2844 37.0203L32.2922 37.0032ZM28.8407 36.125C28.8407 37.1016 28.4828 37.9078 27.7578 38.525C27.0422 39.1516 26.0891 39.4688 24.8766 39.4688C23.7453 39.4688 22.6625 39.111 21.5969 38.3938L22.0938 37.4016C23.0047 37.8578 23.8266 38.086 24.5766 38.086C25.2688 38.086 25.8141 37.9313 26.2047 37.6297C26.5953 37.3203 26.8313 36.8891 26.8313 36.3438C26.8313 35.6594 26.3516 35.0735 25.4797 34.586C24.6735 34.1391 23.0547 33.2188 23.0547 33.2188C22.175 32.5766 21.7438 31.8922 21.7438 30.761C21.7438 29.825 22.0688 29.0766 22.7203 28.5063C23.3797 27.9203 24.2172 27.636 25.2594 27.636C26.2963 27.627 27.3127 27.9243 28.1813 28.4907L27.7344 29.4828C27.0362 29.1754 26.2831 29.0122 25.5203 29.0032C24.9266 29.0032 24.4703 29.15 24.1531 29.4344C23.836 29.7188 23.6406 30.0766 23.6406 30.525C23.6406 31.2094 24.1297 31.7953 25.0235 32.2985C25.8453 32.7453 27.4969 33.6907 27.4969 33.6907C28.4 34.325 28.8485 35.0094 28.8485 36.1235L28.8407 36.125ZM48.3813 23.9266C47.2657 23.9016 46.4032 24.0157 45.6797 24.325C45.4766 24.4063 45.1422 24.4063 45.1094 24.6672C45.2235 24.7813 45.2391 24.961 45.3375 25.1141C45.5078 25.3907 45.7938 25.7657 46.0625 25.961C46.3563 26.1891 46.6485 26.4172 46.95 26.6125C47.4953 26.9469 48.1063 27.1422 48.6422 27.475C48.9438 27.6703 49.2532 27.9219 49.5532 28.1266C49.7078 28.2328 49.8047 28.4203 50 28.4844V28.4438C49.9016 28.3219 49.8781 28.1422 49.7797 27.9969C49.6406 27.8578 49.5032 27.736 49.3641 27.5985C48.9566 27.0575 48.468 26.5826 47.9157 26.1907C47.4688 25.8891 46.4922 25.4657 46.3125 24.9532L46.2875 24.9204C46.5891 24.8954 46.9469 24.7813 47.2391 24.7C47.711 24.5782 48.15 24.6016 48.6391 24.4797C48.8634 24.4215 49.0859 24.3564 49.3063 24.2844V24.1625C49.0547 23.911 48.8672 23.5688 48.6063 23.3328C47.8872 22.7037 47.1198 22.1321 46.311 21.6235C45.8719 21.3391 45.3188 21.1594 44.8547 20.9235C44.6922 20.8422 44.4078 20.8016 44.3172 20.6625C44.0657 20.3532 43.9188 19.9547 43.7391 19.5875C43.3304 18.7932 42.9504 17.9843 42.6 17.1625C42.3485 16.6172 42.2016 16.0797 41.8922 15.575C40.4594 13.2063 38.8969 11.775 36.5047 10.3672C35.9922 10.0735 35.3735 9.9516 34.7219 9.79691C34.3719 9.78129 34.0297 9.75629 33.6797 9.74066C33.4516 9.64222 33.2328 9.38285 33.0375 9.2516C32.2406 8.74691 30.1891 7.6641 29.611 9.09691C29.236 10.0078 30.1641 10.8953 30.4907 11.3516C30.7266 11.6766 31.0281 12.036 31.1985 12.3938C31.2969 12.6375 31.3203 12.8907 31.4188 13.1422C31.6391 13.7532 31.85 14.436 32.1438 15.0063C32.2985 15.3 32.461 15.6078 32.6563 15.8688C32.7703 16.0235 32.9657 16.0891 33.0063 16.3407C32.811 16.625 32.7953 17.0407 32.6891 17.3828C32.1844 18.961 32.3797 20.9063 33.0875 22.0703C33.3157 22.4204 33.8438 23.186 34.5532 22.8922C35.1797 22.6407 35.0422 21.85 35.2203 21.15C35.261 20.9797 35.236 20.8735 35.3188 20.7594V20.7922C35.5219 21.1828 35.7172 21.5578 35.8969 21.9485C36.3203 22.6328 37.0766 23.3407 37.7031 23.8125C38.0375 24.0641 38.2969 24.4969 38.7125 24.65V24.6094H38.6797C38.5906 24.4875 38.4766 24.4297 38.3625 24.3328C38.0987 24.0715 37.8538 23.7916 37.6297 23.4953C37.0516 22.7141 36.5313 21.8516 36.075 20.9641C35.8552 20.5256 35.6545 20.0778 35.4735 19.6219C35.3922 19.4594 35.3922 19.2063 35.2532 19.125C35.0422 19.4266 34.7328 19.686 34.586 20.0688C34.3172 20.6625 34.2922 21.4032 34.1875 22.1688C34.1391 22.1844 34.1625 22.1688 34.1391 22.2016C33.6922 22.0875 33.5375 21.6313 33.3735 21.2407C32.95 20.2485 32.8844 18.661 33.2438 17.5219C33.3422 17.2282 33.7563 16.3094 33.5938 16.0328C33.5047 15.7641 33.2282 15.6094 33.0813 15.3985C32.8938 15.1375 32.7063 14.8047 32.5766 14.511C32.2422 13.7297 32.0797 12.8672 31.7141 12.086C31.5516 11.7282 31.2578 11.3532 31.0219 11.0203C30.7532 10.6453 30.461 10.3782 30.2563 9.93754C30.1828 9.78285 30.086 9.53129 30.2 9.36722C30.225 9.25316 30.2813 9.21254 30.3953 9.17972C30.575 9.02504 31.0953 9.22035 31.275 9.30941C31.7875 9.51254 32.2188 9.70785 32.65 10.0016C32.8453 10.1407 33.0563 10.4 33.3094 10.4735H33.6032C34.05 10.5719 34.5469 10.4985 34.9625 10.6282C35.7031 10.8641 36.3703 11.2063 36.9719 11.5797C38.8116 12.7607 40.3076 14.4054 41.3094 16.3485C41.4797 16.6657 41.5532 16.9594 41.7078 17.2922C41.9922 17.9844 42.3594 18.675 42.6516 19.3344C42.9438 19.9938 43.2219 20.661 43.6438 21.2063C43.8547 21.5 44.686 21.6532 45.0672 21.8C45.3438 21.9297 45.775 22.0438 46.0188 22.1907C46.4985 22.4844 46.9703 22.8172 47.4188 23.1422C47.6469 23.2969 48.3391 23.6469 48.3797 23.9235L48.3813 23.9266Z" fill="black"/>
</g>
<defs>
<clipPath id="clip0">
<rect width="50" height="50" fill="white"/>
</clipPath>
</defs>
</svg>

<svg xmlns="http://www.w3.org/2000/svg" width="100%" height="100%" viewBox="0 0 50 50" fill="currentColor"  xmlns:v="https://vecta.io/nano"><g clip-path="url(#A)"><path d="M34.18 11.825a2.17 2.17 0 0 0-.57.074v.025h.025c.114.211.302.375.447.57l.317.667.033-.033c.195-.139.294-.358.294-.692-.081-.098-.098-.203-.17-.294-.081-.139-.261-.211-.375-.317zM12.02 39.314h-1.928l-.561-9.188h-.016l-2.938 9.188H5.105l-2.914-9.188h-.025l-.406 9.188H.002c.095-3.853.38-7.699.855-11.523h2.392l2.783 8.464h.016l2.808-8.464h2.278c.505 4.2.806 8.041.895 11.523h-.008zm8.366-8.503c-.781 4.264-1.823 7.366-3.1 9.294-1.009 1.489-2.108 2.237-3.305 2.237-.317 0-.708-.098-1.18-.294v-1.025c.236.033.505.056.806.056.561 0 1.009-.163 1.352-.464.406-.375.611-.797.611-1.261 0-.325-.155-.977-.48-1.969l-2.108-6.575h1.897l1.514 4.916c.342 1.123.489 1.897.423 2.344.837-2.214 1.416-4.639 1.742-7.259h1.827zm25.683 8.503h-5.484V27.791h1.847v10.108h3.638v1.416zm-6.917.278l-2.116-1.042a4.05 4.05 0 0 0 .53-.52c.903-1.05 1.352-2.62 1.352-4.687 0-3.817-1.497-5.72-4.492-5.72-1.466 0-2.612.48-3.434 1.448-.895 1.058-1.352 2.62-1.352 4.68 0 2.027.398 3.508 1.197 4.459.733.847 1.831 1.278 3.305 1.278.545 0 1.05-.066 1.506-.203l2.759 1.611.756-1.301-.011-.002zm-6.859-2.589c-.472-.748-.7-1.953-.7-3.614 0-2.905.88-4.353 2.645-4.353.92 0 1.603.35 2.034 1.042.464.756.7 1.945.7 3.589 0 2.922-.887 4.395-2.645 4.395-.928 0-1.603-.35-2.042-1.042l.008-.017zm-3.452-.878c0 .977-.358 1.783-1.083 2.4-.716.627-1.669.944-2.881.944-1.131 0-2.214-.358-3.28-1.075l.497-.992c.911.456 1.733.684 2.483.684.692 0 1.238-.155 1.628-.456.391-.309.627-.741.627-1.286 0-.684-.48-1.27-1.352-1.758l-2.425-1.367c-.88-.642-1.311-1.327-1.311-2.458 0-.936.325-1.684.977-2.255.659-.586 1.497-.87 2.539-.87 1.037-.009 2.053.288 2.922.855l-.447.992a5.66 5.66 0 0 0-2.214-.48c-.594 0-1.05.147-1.367.431s-.512.642-.512 1.091c0 .684.489 1.27 1.383 1.773a183.52 183.52 0 0 1 2.473 1.392c.903.634 1.352 1.319 1.352 2.433l-.008.002zm19.541-12.198c-1.116-.025-1.978.089-2.702.398-.203.081-.537.081-.57.342.114.114.13.294.228.447.17.277.456.652.725.847.294.228.586.456.888.652.545.334 1.156.53 1.692.863.302.195.611.447.911.652.155.106.252.294.447.358v-.041c-.098-.122-.122-.302-.22-.447-.139-.139-.276-.261-.416-.398a6.58 6.58 0 0 0-1.448-1.408c-.447-.302-1.424-.725-1.603-1.238l-.025-.033c.302-.025.659-.139.952-.22.472-.122.911-.098 1.4-.22.224-.058.447-.123.667-.195v-.122c-.252-.252-.439-.594-.7-.83a18.2 18.2 0 0 0-2.295-1.709c-.439-.284-.992-.464-1.456-.7-.163-.081-.447-.122-.538-.261-.252-.309-.398-.708-.578-1.075a37.13 37.13 0 0 1-1.139-2.425c-.252-.545-.398-1.083-.708-1.588-1.433-2.369-2.995-3.8-5.388-5.208-.513-.294-1.131-.416-1.783-.57l-1.042-.056c-.228-.098-.447-.358-.642-.489-.797-.505-2.848-1.587-3.427-.155-.375.911.553 1.798.88 2.255.236.325.537.684.708 1.042.098.244.122.497.22.748.22.611.431 1.294.725 1.864.155.294.317.601.513.863.114.155.309.22.35.472-.195.284-.211.7-.317 1.042-.505 1.578-.309 3.524.398 4.688.228.35.756 1.116 1.466.822.627-.252.489-1.042.667-1.742.041-.17.016-.276.099-.391v.033c.203.391.398.766.578 1.156.423.684 1.18 1.392 1.806 1.864.334.252.594.684 1.009.837v-.041h-.033c-.089-.122-.203-.18-.317-.277a7.81 7.81 0 0 1-.733-.837 18.48 18.48 0 0 1-1.555-2.531c-.22-.438-.421-.886-.602-1.342-.081-.163-.081-.416-.22-.497-.211.302-.52.561-.667.944-.269.594-.294 1.334-.398 2.1-.048.016-.025 0-.048.033-.447-.114-.602-.57-.766-.961-.423-.992-.489-2.58-.13-3.719.098-.294.513-1.212.35-1.489-.089-.269-.366-.423-.513-.634-.187-.261-.375-.594-.505-.888-.334-.781-.497-1.644-.863-2.425-.162-.358-.456-.733-.692-1.066-.269-.375-.561-.642-.766-1.083-.073-.155-.17-.406-.056-.57.025-.114.081-.155.195-.187.18-.155.7.041.88.13.513.203.944.398 1.375.692.195.139.406.398.659.472h.294c.447.098.944.025 1.359.155.741.236 1.408.578 2.009.952a12.44 12.44 0 0 1 4.337 4.769c.17.317.244.611.398.944.284.692.652 1.383.944 2.042s.57 1.327.992 1.872c.211.294 1.042.447 1.423.594.277.13.708.244.952.391.48.294.952.627 1.4.951.228.155.92.505.961.781l.002.003z" fill="currentColor"/></g><defs><clipPath id="A"><path fill="currentColor" d="M0 0h50v50H0z"/></clipPath></defs></svg>
